webroot/icon/equals.svg

<svg width="24" height="24" viewBox="0 0 24 24" fill="none" xmlns="http://www.w3.org/2000/svg"><path d="M20.5714 14.1427H3.42857C2.63973 14.1427 2 14.7824 2 15.5713V16.9999C2 17.7887 2.63973 18.4284 3.42857 18.4284H20.5714C21.3603 18.4284 22 17.7887 22 16.9999V15.5713C22 14.7824 21.3603 14.1427 20.5714 14.1427ZM20.5714 5.57129H3.42857C2.63973 5.57129 2 6.21102 2 6.99986V8.42843C2 9.21727 2.63973 9.857 3.42857 9.857H20.5714C21.3603 9.857 22 9.21727 22 8.42843V6.99986C22 6.21102 21.3603 5.57129 20.5714 5.57129Z" fill="black"/></svg>

<svg width="24" height="24" viewBox="0 0 24 24" fill="none" xmlns="http://www.w3.org/2000/svg"><path d="M20.571 14.143H3.43c-.79 0-1.429.64-1.429 1.428V17c0 .789.64 1.428 1.429 1.428h17.14c.79 0 1.429-.64 1.429-1.428v-1.43c0-.789-.64-1.428-1.429-1.428zm0-8.572H3.43C2.639 5.571 2 6.211 2 7v1.428c0 .79.64 1.429 1.429 1.429H20.57c.79 0 1.429-.64 1.429-1.429V7a1.43 1.43 0 00-1.429-1.429z" fill="#000"/></svg>
